packages/bezier-icons/icons/no-sound-filled.svg

<svg width="24" height="24" viewBox="0 0 24 24" fill="none" xmlns="http://www.w3.org/2000/svg">
<path d="M12.8286 2.00818L12.9601 1.99951H13.9601C14.5124 1.99951 14.9601 2.44723 14.9601 2.99951V20.9995C14.9601 21.5518 14.5124 21.9995 13.9601 21.9995H12.9601C12.6949 21.9995 12.4405 21.8942 12.253 21.7066L7.54498 16.9989L2.96008 16.9995C2.44725 16.9995 2.02458 16.6135 1.96681 16.1161L1.96008 15.9995V7.99951C1.96008 7.44723 2.4078 6.99951 2.96008 6.99951L7.54498 6.99891L12.253 2.2924C12.4093 2.13612 12.6119 2.03691 12.8286 2.00818Z" fill="#313234"/>
<path d="M23.1266 15.2266C22.7621 15.5911 22.1712 15.5911 21.8067 15.2266L19.9 13.3199L17.9933 15.2266C17.6288 15.5911 17.0379 15.5911 16.6734 15.2266C16.3089 14.8621 16.3089 14.2712 16.6734 13.9067L18.5801 12L16.6734 10.0933C16.3089 9.72881 16.3089 9.13786 16.6734 8.77337C17.0379 8.40888 17.6288 8.40888 17.9933 8.77337L19.9 10.6801L21.8067 8.77337C22.1712 8.40888 22.7621 8.40888 23.1266 8.77337C23.4911 9.13786 23.4911 9.72881 23.1266 10.0933L21.2199 12L23.1266 13.9067C23.4911 14.2712 23.4911 14.8621 23.1266 15.2266Z" fill="#313234"/>
</svg>

<svg xmlns="http://www.w3.org/2000/svg" width="24" height="24" fill="none" viewBox="0 0 24 24"><path fill="#313234" d="M12.829 2.008 12.96 2h1a1 1 0 0 1 1 1v18a1 1 0 0 1-1 1h-1a1 1 0 0 1-.707-.293l-4.708-4.708H2.96a1 1 0 0 1-.993-.883L1.96 16V8a1 1 0 0 1 1-1h4.585l4.708-4.707a1 1 0 0 1 .576-.284M23.127 15.227a.933.933 0 0 1-1.32 0L19.9 13.32l-1.907 1.907a.933.933 0 1 1-1.32-1.32L18.58 12l-1.907-1.907a.933.933 0 1 1 1.32-1.32L19.9 10.68l1.907-1.907a.933.933 0 1 1 1.32 1.32L21.22 12l1.907 1.907a.933.933 0 0 1 0 1.32"/></svg>
